Source/Widgets/Images/home.svg

<?xml version="1.0" encoding="UTF-8" standalone="no"?>
<svg
   xmlns:dc="http://purl.org/dc/elements/1.1/"
   xmlns:cc="http://creativecommons.org/ns#"
   xmlns:rdf="http://www.w3.org/1999/02/22-rdf-syntax-ns#"
   xmlns:svg="http://www.w3.org/2000/svg"
   xmlns="http://www.w3.org/2000/svg"
   xmlns:xlink="http://www.w3.org/1999/xlink"
   xmlns:sodipodi="http://sodipodi.sourceforge.net/DTD/sodipodi-0.dtd"
   xmlns:inkscape="http://www.inkscape.org/namespaces/inkscape"
   height="28"
   viewBox="0 0 28 28"
   width="28"
   version="1.1"
   class="testSVG"
   id="svg2"
   inkscape:version="0.48.2 r9819"
   sodipodi:docname="home.svg">
  <sodipodi:namedview
     pagecolor="#ffffff"
     bordercolor="#666666"
     borderopacity="1"
     objecttolerance="10"
     gridtolerance="10"
     guidetolerance="10"
     inkscape:pageopacity="0"
     inkscape:pageshadow="2"
     inkscape:window-width="1920"
     inkscape:window-height="1138"
     id="namedview74"
     showgrid="false"
     inkscape:zoom="16"
     inkscape:cx="1.6066182"
     inkscape:cy="14.424"
     inkscape:window-x="-8"
     inkscape:window-y="-8"
     inkscape:window-maximized="1"
     inkscape:current-layer="svg2" />
  <metadata
     id="metadata4">
    <rdf:RDF>
      <cc:Work
         rdf:about="">
        <dc:format>image/svg+xml</dc:format>
        <dc:type
           rdf:resource="http://purl.org/dc/dcmitype/StillImage" />
        <dc:title />
      </cc:Work>
    </rdf:RDF>
  </metadata>
  <style
     type="text/css"
     id="style6">
.cesium-sceneModePicker-rectButton {
    cursor: pointer;
    -moz-user-select: none;
    -webkit-user-select: none;
    user-select: none;
}
.cesium-sceneModePicker-rectButton .cesium-sceneModePicker-buttonGlow {
    fill: #fff;
    stroke: none;
    filter: url(#sceneMode_blurred);
    display: none;
}
.cesium-sceneModePicker-rectButton:hover .cesium-sceneModePicker-buttonGlow {
    display: block;
}
.cesium-sceneModePicker-rectButton .cesium-sceneModePicker-buttonPath {
    fill: #edffff;
}
.cesium-sceneModePicker-rectButton .cesium-sceneModePicker-buttonMain {
    fill: url(#sceneMode_buttonNormal);
    stroke: #444;
    stroke-width: 1.2;
}
.cesium-sceneModePicker-rectButton:hover .cesium-sceneModePicker-buttonMain {
    fill: url(#sceneMode_buttonHovered);
    stroke: #AEF;
}
.cesium-sceneModePicker-rectButton:active .cesium-sceneModePicker-buttonMain {
    fill: #ABD6FF;
}
.cesium-sceneModePicker-buttonDisabled {
    -moz-user-select: none;
    -webkit-user-select: none;
    user-select: none;
}
.cesium-sceneModePicker-buttonDisabled .cesium-sceneModePicker-buttonMain {
    fill: url(#sceneMode_buttonDisabled);
    stroke: #555;
}
.cesium-sceneModePicker-buttonDisabled .cesium-sceneModePicker-buttonPath {
    fill: #818181;
}
.cesium-sceneModePicker-buttonDisabled .cesium-sceneModePicker-buttonGlow {
    display: none;
}
.cesium-sceneModePicker-buttonToggled .cesium-sceneModePicker-buttonGlow {
    display: block;
    fill: #2E2;
}
.cesium-sceneModePicker-buttonToggled .cesium-sceneModePicker-buttonMain {
    stroke: #2E2;
}
.cesium-sceneModePicker-buttonToggled:hover .cesium-sceneModePicker-buttonGlow {
    fill: #fff;
}
.cesium-sceneModePicker-buttonToggled:hover .cesium-sceneModePicker-buttonMain {
    stroke: #2E2;
}
</style>
  <rect
     transform="matrix(0.845,0,0,0.84848485,37.18,0)"
     class="cesium-sceneModePicker-buttonGlow"
     rx="2"
     ry="2"
     height="32"
     width="32"
     y="0"
     x="0"
     display="none"
     id="rect8"
     style="fill:#ffffff;display:none;filter:url(#sceneMode_blurred)" />
  <rect
     rx="3.3734937"
     ry="3.3733943"
     height="26.987949"
     width="26.987949"
     y="0.50602531"
     x="0.50602514"
     class="cesium-sceneModePicker-buttonMain"
     id="rect10"
     style="fill:url(#linearGradient4392);stroke:#444444;stroke-width:1.01205027" />
  <rect
     transform="matrix(0.845,0,0,0.84848485,104.78,0)"
     class="cesium-sceneModePicker-buttonGlow"
     rx="2"
     ry="2"
     height="32"
     width="32"
     y="0"
     x="0"
     display="none"
     id="rect12"
     style="fill:#ffffff;display:none;filter:url(#sceneMode_blurred)" />
  <rect
     transform="matrix(0.845,0,0,0.84848485,70.98,0)"
     class="cesium-sceneModePicker-buttonGlow"
     rx="2"
     ry="2"
     height="32"
     width="32"
     y="0"
     x="0"
     display="none"
     id="rect16"
     style="fill:#ffffff;display:none;filter:url(#sceneMode_blurred)" />
  <defs
     id="defs20">
    <linearGradient
       id="sceneMode_buttonNormal"
       x2="0.5"
       x1="0.5"
       y2="1">
      <stop
         stop-color="#747577"
         offset="0"
         id="stop23" />
      <stop
         stop-color="#394452"
         offset="0.12"
         id="stop25" />
      <stop
         stop-color="#2D3237"
         offset="0.46"
         id="stop27" />
      <stop
         stop-color="#353535"
         offset="0.81"
         id="stop29" />
    </linearGradient>
    <linearGradient
       id="sceneMode_buttonHovered"
       x2="0.5"
       x1="0.5"
       y2="1">
      <stop
         stop-color="#89B4CF"
         offset="0"
         id="stop32" />
      <stop
         stop-color="#5494C1"
         offset="0.12"
         id="stop34" />
      <stop
         stop-color="#4C8EB8"
         offset="0.46"
         id="stop36" />
      <stop
         stop-color="#5492B7"
         offset="0.81"
         id="stop38" />
    </linearGradient>
    <linearGradient
       id="sceneMode_buttonDisabled"
       x2="0.5"
       x1="0.5"
       y2="1">
      <stop
         stop-color="#696969"
         offset="0"
         id="stop41" />
      <stop
         stop-color="#333"
         offset="0.75"
         id="stop43" />
    </linearGradient>
    <filter
       id="sceneMode_blurred"
       width="2"
       y="-0.5"
       x="-0.5"
       height="2"
       color-interpolation-filters="sRGB">
      <feGaussianBlur
         stdDeviation="4"
         in="SourceGraphic"
         id="feGaussianBlur46" />
    </filter>
    <linearGradient
       id="linearGradient4382"
       y2="32.599998"
       xlink:href="#sceneMode_buttonNormal"
       gradientUnits="userSpaceOnUse"
       x2="16"
       gradientTransform="matrix(0.845,0,0,0.84848485,35.675205,3)"
       y1="-0.60000002"
       x1="16" />
    <linearGradient
       id="linearGradient4387"
       y2="32.599998"
       xlink:href="#sceneMode_buttonNormal"
       gradientUnits="userSpaceOnUse"
       x2="16"
       gradientTransform="matrix(0.845,0,0,0.84848485,69.475205,3)"
       y1="-0.60000002"
       x1="16" />
    <linearGradient
       id="linearGradient4392"
       y2="32.599998"
       xlink:href="#sceneMode_buttonNormal"
       gradientUnits="userSpaceOnUse"
       x2="16"
       gradientTransform="matrix(0.84337339,0,0,0.84335832,0.5060306,0.5060251)"
       y1="-0.60000002"
       x1="16" />
    <linearGradient
       id="linearGradient3051"
       y2="32.599998"
       gradientUnits="userSpaceOnUse"
       y1="-0.60000002"
       gradientTransform="matrix(0.845,0,0,0.84848485,103.22123,2.9946832)"
       x2="16"
       x1="16">
      <stop
         stop-color="#747577"
         offset="0"
         id="stop52" />
      <stop
         stop-color="#394452"
         offset="0.12"
         id="stop54" />
      <stop
         stop-color="#2D3237"
         offset="0.46"
         id="stop56" />
      <stop
         stop-color="#353535"
         offset="0.81"
         id="stop58" />
    </linearGradient>
  </defs>
  <path
     style="fill:#edffff;fill-opacity:1;fill-rule:evenodd;stroke:none"
     d="M 14 4 L 4 12.75 L 24 12.75 L 19.75 9.03125 L 19.75 4.375 L 16.9375 4.375 L 16.9375 6.5625 L 14 4 z M 6.90625 13.90625 L 6.90625 24 L 21 24 L 21 13.90625 L 6.90625 13.90625 z M 9.09375 16.21875 L 12.40625 16.21875 L 12.40625 20.46875 L 9.09375 20.46875 L 9.09375 16.21875 z M 14.9375 17.5 L 18.34375 17.5 L 18.34375 23.9375 L 14.9375 23.9375 L 14.9375 17.5 z "
     id="path11341" />
</svg>

<svg xmlns:rdf="http://www.w3.org/1999/02/22-rdf-syntax-ns#" xmlns="http://www.w3.org/2000/svg" class="testSVG" height="28" width="28" version="1.1" xmlns:cc="http://creativecommons.org/ns#" xmlns:xlink="http://www.w3.org/1999/xlink" viewBox="0 0 28 28" xmlns:dc="http://purl.org/dc/elements/1.1/">
 <metadata>
  <rdf:RDF>
   <cc:Work rdf:about="">
    <dc:format>image/svg+xml</dc:format>
    <dc:type rdf:resource="http://purl.org/dc/dcmitype/StillImage"/>
    <dc:title/>
   </cc:Work>
  </rdf:RDF>
 </metadata>
 <style type="text/css">.cesium-sceneModePicker-rectButton {
    cursor: pointer;
    -moz-user-select: none;
    -webkit-user-select: none;
    user-select: none;
}
.cesium-sceneModePicker-rectButton .cesium-sceneModePicker-buttonGlow {
    fill: #fff;
    stroke: none;
    filter: url(#sceneMode_blurred);
    display: none;
}
.cesium-sceneModePicker-rectButton:hover .cesium-sceneModePicker-buttonGlow {
    display: block;
}
.cesium-sceneModePicker-rectButton .cesium-sceneModePicker-buttonPath {
    fill: #edffff;
}
.cesium-sceneModePicker-rectButton .cesium-sceneModePicker-buttonMain {
    fill: url(#sceneMode_buttonNormal);
    stroke: #444;
    stroke-width: 1.2;
}
.cesium-sceneModePicker-rectButton:hover .cesium-sceneModePicker-buttonMain {
    fill: url(#sceneMode_buttonHovered);
    stroke: #AEF;
}
.cesium-sceneModePicker-rectButton:active .cesium-sceneModePicker-buttonMain {
    fill: #ABD6FF;
}
.cesium-sceneModePicker-buttonDisabled {
    -moz-user-select: none;
    -webkit-user-select: none;
    user-select: none;
}
.cesium-sceneModePicker-buttonDisabled .cesium-sceneModePicker-buttonMain {
    fill: url(#sceneMode_buttonDisabled);
    stroke: #555;
}
.cesium-sceneModePicker-buttonDisabled .cesium-sceneModePicker-buttonPath {
    fill: #818181;
}
.cesium-sceneModePicker-buttonDisabled .cesium-sceneModePicker-buttonGlow {
    display: none;
}
.cesium-sceneModePicker-buttonToggled .cesium-sceneModePicker-buttonGlow {
    display: block;
    fill: #2E2;
}
.cesium-sceneModePicker-buttonToggled .cesium-sceneModePicker-buttonMain {
    stroke: #2E2;
}
.cesium-sceneModePicker-buttonToggled:hover .cesium-sceneModePicker-buttonGlow {
    fill: #fff;
}
.cesium-sceneModePicker-buttonToggled:hover .cesium-sceneModePicker-buttonMain {
    stroke: #2E2;
}</style>
 <rect transform="matrix(0.845,0,0,0.84848485,37.18,0)" display="none" rx="2" ry="2" height="32" filter="url(#sceneMode_blurred)" width="32" y="0" x="0" class="cesium-sceneModePicker-buttonGlow" fill="#FFF"/>
 <rect rx="3.3735" ry="3.3734" height="26.988" width="26.988" stroke="#444" y="0.50603" x="0.50603" stroke-width="1.0121" class="cesium-sceneModePicker-buttonMain" fill="url(#linearGradient4392)"/>
 <rect transform="matrix(0.845,0,0,0.84848485,104.78,0)" display="none" rx="2" ry="2" height="32" filter="url(#sceneMode_blurred)" width="32" y="0" x="0" class="cesium-sceneModePicker-buttonGlow" fill="#FFF"/>
 <rect transform="matrix(0.845,0,0,0.84848485,70.98,0)" display="none" rx="2" ry="2" height="32" filter="url(#sceneMode_blurred)" width="32" y="0" x="0" class="cesium-sceneModePicker-buttonGlow" fill="#FFF"/>
 <defs>
  <linearGradient id="sceneMode_buttonNormal" x2="0.5" x1="0.5" y2="1">
   <stop stop-color="#747577" offset="0"/>
   <stop stop-color="#394452" offset="0.12"/>
   <stop stop-color="#2D3237" offset="0.46"/>
   <stop stop-color="#353535" offset="0.81"/>
  </linearGradient>
  <linearGradient id="sceneMode_buttonHovered" x2="0.5" x1="0.5" y2="1">
   <stop stop-color="#89B4CF" offset="0"/>
   <stop stop-color="#5494C1" offset="0.12"/>
   <stop stop-color="#4C8EB8" offset="0.46"/>
   <stop stop-color="#5492B7" offset="0.81"/>
  </linearGradient>
  <linearGradient id="sceneMode_buttonDisabled" x2="0.5" x1="0.5" y2="1">
   <stop stop-color="#696969" offset="0"/>
   <stop stop-color="#333" offset="0.75"/>
  </linearGradient>
  <filter id="sceneMode_blurred" height="2" width="2" y="-0.5" x="-0.5" color-interpolation-filters="sRGB">
   <feGaussianBlur stdDeviation="4" in="SourceGraphic"/>
  </filter>
  <linearGradient id="linearGradient4392" x1="16" xlink:href="#sceneMode_buttonNormal" gradientUnits="userSpaceOnUse" y1="-0.6" gradientTransform="matrix(0.84337339,0,0,0.84335832,0.5060306,0.5060251)" x2="16" y2="32.6"/>
 </defs>
 <path fill-rule="evenodd" fill="#edffff" d="M14,4l-10,8.75h20l-4.25-3.7188v-4.6562h-2.812v2.1875l-2.938-2.5625zm-7.0938,9.906v10.094h14.094v-10.094h-14.094zm2.1876,2.313h3.3122v4.25h-3.3122v-4.25zm5.8442,1.281h3.406v6.438h-3.406v-6.438z"/>
</svg>
